X:125.1
T:Untitled Jig
T:from James E Frill's Musick Book  p. 125 top
Z:Sarah Gowan
M:6/8
L:1/8
K:D
f/g/|afd ecA| dBG F2E| DFA Bgf|efd c2 f/g/|
afd ecA| dBG F2E| DFA Bgf|edc d2d:|
|:Ace gec|Adf afd|Ace gec|Bed c2B|
Ace gec | Adf afd|AcA Bgf| edc d3:|
